rospo-light/16x16/actions/gtg-tag-new.svg

<svg height="16" viewBox="0 0 16 16" width="16" xmlns="http://www.w3.org/2000/svg"><path d="m4 1s-2 0-2 2v5l7 7 7-7-7-7zm3 3h2v2h2v2h-2v2h-2v-2h-2v-2h2z" fill="#5c616c"/></svg>

<?xml version="1.0" encoding="UTF-8" standalone="no"?>
<svg xmlns="http://www.w3.org/2000/svg" width="22" height="22" viewBox="0 0 22 22">
 <defs>
  <style type="text/css" id="current-color-scheme">
   .ColorScheme-Text { color:#5c616c; } .ColorScheme-Highlight { color:#5294e2; }
  </style>
 </defs>
 <path style="fill:currentColor;opacity:1" class="ColorScheme-Text" transform="translate(3 3)" d="M 4 1 C 4 1 2 1 2 3 L 2 8 L 9 15 L 16 8 L 9 1 L 4 1 z M 7 4 L 9 4 L 9 6 L 11 6 L 11 8 L 9 8 L 9 10 L 7 10 L 7 8 L 5 8 L 5 6 L 7 6 L 7 4 z"/>
</svg>
